X:1
T:Title
%%score { 1 | 2 }
L:1/8
M:2/4
K:A
V:1 treble nm="Grand Piano"
V:2 bass 
V:1
 z2 z[Q:1/4=90] [CE] | [A,C][CE] [CE][CE] | [DF][FA] [FA]F | EA BG |[M:3/8] [CEA]3 | %5
[M:1/8][K:bass] [A,CE] |[M:2/4] [E,A,C][A,CE] [A,CE][A,CE] | [A,DF][A,FA] [A,FA][A,DF] | %8
 [A,CE][CEA] [DEB][B,EG] |[M:3/8] [CEA]3 |[M:1/8] z |[M:2/4] [Fd]2 [Fd]>[Fd] | [Fd]3 [Fd] | c2 c2 | %14
 c3 c | B3 A | B2 c2 | B4- |[M:3/8] B3 |[M:1/8] [CE] |[M:2/4] [A,C][CE] [CE][CE] | [DF][FA] [FA]F | %22
 EA BG |[M:11/8] [CEA]3 z z z z z z z2 |] %24
V:2
 z2 z [A,,A,] | [A,,E,][A,,A,] [A,,A,][A,,A,] | [D,A,][D,A,] [D,A,][D,A,D] | %3
 [E,A,C][E,CE] [E,DE][E,B,E] |[M:3/8] A,,3 |[M:1/8] A,, |[M:2/4] A,,A,, A,,A,, | D,D, D,D, | %8
 E,E, E,E, |[M:3/8] A,,3 |[M:1/8] z |[M:2/4] [D,A,]2 [D,A,]>[D,A,] | [D,A,]3 [D,A,] | %13
 [A,E]2 [A,E]2 | [A,E]3 [A,E] | [E,G,D]3 [E,A,C] | [E,G,E]2 [E,A,E]2 | [E,G,E]4- | %18
[M:3/8] [E,G,E]3 |[M:1/8] [A,,A,] |[M:2/4] [A,,E,][A,,A,] [A,,A,][A,,A,] | %21
 [D,A,][D,A,] [D,A,][D,A,D] | [E,A,C][E,CE] [E,DE][E,B,E] |[M:11/8] A,,3 z z z z z z z2 |] %24

